!!!OTL: UNS LANDWEHRMAENNERN
!!!ARE: Europa, Mitteleuropa, Deutschland
!!!SCT: B0581
!!!YEM: Copyright 1995, estate of Helmut Schaffrath.
**kern
*ICvox
*Ivox
*M4/4
*k[b-e-]
*B-:
{8f
8g
8a
=1
4b-
4b-
8cc
8b-
8a
8b-
=2
4cc}
{8f
8a
4cc
8b-
8cc
=3
4dd
4b-
4ee-
4dd
=4
2cc
8r}
{8f
8g
8a
=5
4b-
4dd
8cc
8b-
8a
8b-
=6
4cc}
{8f
8a
4cc
4ee-
=7
4.dd
8a
8b-
8cc
8dd
8een
=8
2ff
4.r}
{8f
=9
4cc
8b-
8cc
4dd
4b-
=10
4b-
4b-
8cc
4dd}
{8b-
=11
4ee-
8dd
8dd
4gg
8ff
8ee-
=12
4dd
4cc
4.b-}
{8f
=13
4cc
8b-
8cc
4dd
4b-
=14
4b-
8b-
8cc
4.dd}
{8b-
=15
4ee-
8dd
8dd
4gg
8ff
8ee-
=16
4dd
4cc
8b-}
==
!!!AGN: Staende -, Soldaten - Lied, national
!!!ONB: ESAC (Essen Associative Code) Database: BOEHME
!!!AMT: simple quadruple
!!!AIN: vox
!!!EED: Helmut Schaffrath
!!!EEV: 1.0
*-
